X:1
T:Step It Up
T:Tom Brier https://musescore.com/user/19465036/scores/5180643 Transcribed from: Album: "Blue Sahara", Track 1: "Step It Up"
T:Step It Up
C:Tom Brier
%%score { ( 1 2 4 7 ) | ( 3 5 6 ) }
L:1/8
Q:1/2=90
M:4/4
K:G
V:1 treble nm="Piano" snm="Pno."
V:2 treble 
V:4 treble 
V:7 treble 
V:3 bass 
V:5 bass 
V:6 bass 
V:1
!mf!"^Moderato""^Swing 8ths." (3(bab) .ab a4 | (3(BAB) .AB A4 | %2
 [Dd][Ee][Ff][Gg] [Aa][Bb][cc'][^c^c'] | .[dfad']2 z2!8va(! [d'f'a'd'']2!8va)! z2 |: %4
!mf! [GB][Ad][Be][dg] [Be]4 | z [Ad] [Be][dg] [Be][Ad][GB]E | ^CE[CG][EB] [CGA]4 | %7
 z G [^CA][DB] [CA]GE^E | F[ce]A[Fcd]- [Fcd]c[FA]^A | %9
 (3([GB][^CA][GB]) [CA]E (3([FB][=CA][FB]) [CA]D |!f! G[B,B][Dd][Gg] [F_B_df] [Ee]2 [Gceg]- | %11
 [Gceg]e[Gc][DFB]- [DFB]d [CFA]2 |!mf! [GB][Ad][Be][dg] [Be]4 | z [Ad] [Be][dg] [Be][Ad][GB]E | %14
 ^CE[CG][EB] [CGA]4 | z G [^CA]B [=CFA]Bc^c |!f! [GBd]2 ^cd- [GBdg]2 fg | [Gce]2 cA [C_EG]2 A^A | %18
 B[^Ae][Bd]G [^CEB]G[=CFB][B,DG]- |1 [B,DG]8 :|2 [B,DG]6 [dgb]e |: %21
!mp! [^cga]2 [cb]e [=c_ega]2 [ceb]d | [cfa] .[dd']2 [cfb]- [cfb]2 (3bad | %23
!mf! .[Be]2 [^Af]d .[Be]2 [Af]d | [Be] [Gg]2 [GBe]- [GBe]^c (3dgb | %25
 [dd']2 [d=fb][eac']- [eac']2 [c^d^f][Bdg]- | [Bdg]2 ^d[GBe]- [GBe]2 [B=dg][FB^df]- | %27
 [FBdf]f/^d/ B[F^A^cef]- [FAcef]F- [FAcf]2 | [FB^df]4 [FAc=d]2 [dgb]e | %29
!mp! [^cga]2 [cb]e [=c_ega]2 [ceb]d | [cfa] .[dd']2 [cfb]- [cfb]2 (3bad | %31
!mf! .[Be]2 [^Af]d .[Be]2 [Af]d | [Be] [Gg]2 [GBe]- [GBe]^c (3dgb | %33
 .[d=fbd']2 [ec'][^cg_b]- [cgb]c'[cgb]c' | _b [c_e_g_a]2 b [ce=g]2 [ce_g]2 | %35
 e[Acd]e[dfb]- [dfb]f [ca]2 |1 z =F E_E =D2 x2 :|2 z =F E_E =D2 z2 || [GB][Ad][Be][dg] [Be]4 | %39
 z [Ad] [Be][dg] [Be][Ad][GB]E | ^CE[CG][EB] [CGA]4 | z G [^CA][DB] [CA]GE^E | %42
 F[ce]A[Fcd]- [Fcd]c[FA]^A | (3([GB][^CA][GB]) [CA]E (3([FB][=CA][FB]) [CA]D | %44
!f! G[B,B][Dd][Gg] [F_B_df] [Ee]2 [Gceg]- | [Gceg]e[Gc][DFB]- [DFB]d [CFA]2 | %46
!mf! [GB][Ad][Be][dg] [Be]4 | z [Ad] [Be][dg] [Be][Ad][GB]E | ^CE[CG][EB] [CGA]4 | %49
 z G [^CA]B [=CFA]Bc^c |!f! [GBd]2 ^cd- [GBdg]2 fg | [Gce]2 cA [C_EG]2 A^A | %52
 B[^Ae][Bd]G [^CEB]G[=CFB][B,DG]- | [B,DG]8 ||!mf! (3(ede) .de d4 | (3(dcd) .cd c4 | %56
 [DB][Ec][Fd][Ge] [A=f]2 [^A^f]2 | [Bg]4 z [B^db]2 a |:[K:C]!mf! (3[cg]ag e^d e [A^cea]2 g | %59
 (3[Adf]gf d^c d [GBdg]2 e | (3[Gd]ed [_Gc]_e [_A_d]A[FA_B]=B | [Ge] g2 [GBdg]- [GBdg] [B^da]2 g | %62
 (3[ce]ge GA ^A [^FA^c^f]2 e | (3[B^d]^fd ^F^G A [DFA=d]2 c | (3[DG_B]dB D^D E [A,A]2 G | %65
 [D^F]ED[B,DG]- [B,DG] [B^db]2 a | (3[cg]ag e^d e [A^cea]2 g | (3[Adf]gf d^c d [GBdg]2 e | %68
 (3[Gd]ed cd _e_Bg_b | [_e_ac']ea[dfbd']- [dfbd']gbd' | %70
!f! [_egc'_e'] [=egc'=e']2 [fac'f']- [fac'f'] [^fac'^f']2 [gc'e'g']- | %71
 [gc'e'g'] [^gc'e'^g']2 [a^c'e'a']- [ac'e'a'] A[^ce]=g | [Adf]F[Ad][GBe]- [GBe]F[Bd][EGc]- |1 %73
 [EGc]4 z [B^db]- [Bdb]a :|2 [EGc]4 z [Bb] [cc'][^c^c'] |:!mp! [dfd']a.[efe']a .[dfd']a.[efe']a | %76
 .[dfd'] .[efe']2 [dfd']- [dfd']c'[c^da]^f |!mf! [Gcg]e.[Bcb]e .[Aca]e.[Bcb]e | %78
 [Aca] .[Bcb]2 [Aca]- [Aca]g[G_Bf]e | [Gg]3 [Fdf]- [Fdf][^F^f][Gg][^G^g] | %80
 [Aa]3 [Geg]- [Geg][Bb][cc'][^c^c'] | [dd']3 [c^fc']- [cc']3 [c_ac']- | %82
 [cc']3 [Bdfgb]- [Bdfgb][Bb] [cc'][^c^c'] |!mp! [dfd']a.[efe']a .[dfd']a.[efe']a | %84
 [dfd'] .[efe']2 [dfd']- [dfd']c'[c^da]^f |!mf! [Gcg]e.[Bcb]e .[Aca]e.[Bcb]e | %86
 [Aca] .[Bcb]2 [Aca]- [Aca]g[G_Bf]e | [FAf]3 [^GBe]- [GBe][dd'][cc'][Bb] | %88
 [cec']3 [Ad^fa]- [Adfa][Bb][cc'][dd'] | [ee']3 [Ad^fa]- [Adfa][e^ge'] [d=fd']2 |1 %90
 [cegc']4 z [Bb] [cc'][^c^c'] :|2 [ceg!courtesy!=c']3!8va(! [c'e'g'c'']- [c'e'g'c'']4!8va)! |] %92
V:2
 (3(dcd) .cd c^C D2 | (3(DCD) .CD x4 | x8 | x4!8va(! x2!8va)! x2 |: x8 | x8 | x8 | x8 | x8 | x8 | %10
 x8 | x8 | x8 | x8 | x8 | x8 | x8 | x8 | x8 |1 x8 :|2 x8 |: x8 | x8 | x8 | x8 | x8 | x8 | x8 | x8 | %29
 x8 | x8 | x8 | x8 | x8 | x8 | x8 |1 x [B,D] [_B,_D][A,C] [G,=B,]2 x2 :|2 %37
 x [B,D] [_B,_D][A,C] [G,=B,]2 x2 || x8 | x8 | x8 | x8 | x8 | x8 | x8 | x8 | x8 | x8 | x8 | x8 | %50
 x8 | x8 | x8 | x8 || (3(G=FG) .FG x4 | (3(=FEF) .EF x4 | x8 | x8 |:[K:C] x8 | x8 | x8 | x8 | x8 | %63
 x8 | x8 | x8 | x8 | x8 | x8 | x8 | x8 | x8 | x8 |1 x8 :|2 x8 |: x8 | x8 | x8 | x8 | Bc^c x5 | %80
 cd^d x5 | a_ag x fed x | agf x5 | x8 | x8 | x8 | x8 | z dc x5 | z ag x5 | z g^g x5 |1 x8 :|2 %91
 x3!8va(! x5!8va)! |] %92
V:3
 x8 | x4[I:staff -1] C[I:staff +1]^C, D,2 | F,E,D,_D, C,B,,A,,G,, | .F,,2 z2 [D,,D,]2 z G,,- |: %4
 [G,,D,B,]2 .[D,G,B,]2 [D,,D,]2 .[D,G,B,]2 | [G,,D,G,]2 .[D,G,B,]2 [D,,D,]2 .[D,G,B,][^D,,^D,] | %6
 [E,,E,]2 .[E,G,A,]2 [A,,,A,,]2 .[E,G,A,]E,,- | [E,,G,]2 .[E,G,A,]A,,- [A,,A,]A,,-[A,,G,]A,,- | %8
 [A,,F,]2 .[D,F,A,]2 [D,,D,]2 .[D,F,A,]E,,- | [E,,G,]2 .[E,G,A,]F,,- [F,,A,]2 .[D,F,A,]G,,- | %10
 [G,,D,G,]2 .[D,G,B,]_B,,- [B,,_B,]2 .[G,B,]2 | %11
 [A,,A,]2 .[E,A,C][D,F,A,C]- [D,F,A,C][D,,D,][E,,E,][F,,F,] | %12
 [G,,G,]2 .[D,G,B,]2 [D,,D,]2 .[D,G,B,]2 | [G,,D,G,]2 .[D,G,B,]D,,- [D,,D,]2 .[D,G,B,][^D,,^D,] | %14
 [E,,E,]2 .[E,G,A,]2 [A,,,A,,]2 .[E,G,A,]E,,- | [E,,E,]G,,-[G,,G,]F,,- [F,,F,]D,,-[D,,D,]G,,,- | %16
 ([G,,,G,,] [D,G,B,]2) ([G,,,G,,] [B,,,B,,] [D,G,B,]2) ([B,,,B,,] | %17
 [C,,C,] [E,G,C]2) ([D,,D,] [_E,,_E,] [E,G,C]2) [E,,E,] | %18
 [D,,D,]^A,B,G, [A,,E,G,]2 [A,,D,F,][G,,D,G,]- |1 z =F E_E =D2 [E,,E,][F,,F,] :|2 %20
 z =F E_E =D2 z A,,- |: [A,,E,G,]3 A,,- [A,,_E,G,]3 A,,- | %22
 [A,,D,F,]2 .[D,F,A,C]2 [D,,D,]2 .[D,F,A,C]G,,- | %23
 .[G,,D,B,]G,,-[G,,^C,^A,]G,,- .[G,,D,B,]G,,-[G,,C,A,]G,,- | %24
 [G,,D,B,]2 .[D,G,B,]2 [D,,D,]2 .[D,G,B,]2 | .[B,,B,]^G,,-[G,,^G,]A,,- [A,,A,]C,-.[C,C]B,,- | %26
 [B,,B,]A,,-.[A,,A,]G,,- [G,,G,]E,,-[E,,E,]F,,- | [F,,F,]2 .[F,B,^D]2 [F,,F,]2 .[F,^A,E]2 | %28
 [B,,B,]2 [_B,,_B,][A,,A,]- [A,,A,]F, D,2 | [A,,E,G,]3 A,,- [A,,_E,G,]3 A,,- | %30
 [A,,D,F,]2 .[D,F,A,C]2 D,,2 .[D,F,A,C]G,,- | %31
 .[G,,D,B,]G,,-[G,,^C,^A,]G,,- .[G,,D,B,]G,,-[G,,C,A,]G,,- | %32
 [G,,D,B,]2 [D,G,B,]2 [D,,D,]2 [D,G,B,]2 | [B,,,B,,]C,,-[C,,C,]^C,,- [C,,^C,]^D,,-[D,,^D,]^E,,- | %34
 [E,,^E,]F,,-[F,,F,]G,,- [G,,G,]^G,,-[G,,^G,]A,,- | %35
 [A,,A,]2 [D,F,A,C]2 [D,,D,][^D,,^D,][E,,E,][F,,F,] |1 [G,,G,]4 z2 z A,, :|2 %37
 [G,,G,]4 z [D,,D,] [E,,E,][F,,F,] || [G,,G,]2 .[D,G,B,]2 [D,,D,]2 .[D,G,B,]2 | %39
 [G,,D,G,]2 .[D,G,B,]D,,- [D,,D,][^C,,^C,][D,,D,][^D,,^D,] | %40
 [E,,E,]2 .[E,G,A,]2 [A,,,A,,]2 .[E,G,A,]E,,- | [E,,G,]2 .[E,G,A,]A,,- [A,,A,]A,,-[A,,G,]A,,- | %42
 [A,,F,]2 .[D,F,A,]2 [D,,D,]2 .[D,F,A,]E,,- | [E,,G,]2 .[E,G,A,]F,,- [F,,A,]2 .[D,F,A,]G,,- | %44
 [G,,D,G,]2 .[D,G,B,]_B,,- [B,,_B,]2 .[G,B,]2 | %45
 [A,,A,]2 .[E,A,C][D,,D,]- [D,,D,][^D,,^D,][E,,E,][F,,F,] | %46
 [G,,G,]2 .[D,G,B,]2 [D,,D,]2 .[D,G,B,]2 | %47
 [G,,D,G,]2 .[D,G,B,]D,,- [D,,D,][^C,,^C,][D,,D,][^D,,^D,] | %48
 [E,,E,]2 .[E,G,A,]2 [A,,,A,,]2 .[E,G,A,]E,,- | [E,,E,]G,,-[G,,G,]F,,- [F,,F,]D,,-[D,,D,]G,,,- | %50
 ([G,,,G,,] [D,G,B,]2) ([G,,,G,,] [B,,,B,,] [D,G,B,]2) ([B,,,B,,] | %51
 [C,,C,] [E,G,C]2) ([D,,D,] [_E,,_E,] [E,G,C]2) [E,,E,] | %52
 [D,,D,]^A,B,G, [A,,E,G,]2 [A,,D,F,][G,,D,G,]- | z =F E_E =D2 [G,,,G,,]2 || %54
 x4[I:staff -1] =F[I:staff +1]F, G,2 | x4[I:staff -1] E[I:staff +1]F, G,2 | =F,G,A,B, C2 ^C2 | %57
 D2{/G,^A,^A,} B,2{/D,E,F,} G,2 [G,,=F,]C,,- |: %58
[K:C] [C,,G,,E,]2 .[G,CE]2 [^C,,^C,]2 .[G,A,^CE]D,,- | [D,,F,]2 .[F,A,D]2 [G,,,G,,]2 .[G,B,F]2 | %60
 [G,CE]2 [_G,C_E]2 [F,_A,_DF]2 [F,B,=D]2 | [E,G,C]2 [^C,^A,]2 [D,B,]2 [G,,D,F,]C,,- | %62
 [C,,G,,E,]2 .[G,CE]2 [^C,,^C,]2 [^F,,^F,]B,,,- | [B,,,B,,]2 .[^F,B,^D]2 [D,,A,,D,]2 [^F,,F,]G,,- | %64
 [G,,D,G,]2 .[D,G,_B,]2 [A,,G,]2 .[E,G,A,^C]D,- | %65
 [D,^F,A,C]2 [G,,G,][=F,G,]- [F,G,]2 [G,,,G,,]C,,- | %66
 [C,,G,,E,]2 .[G,CE]2 [^C,,^C,]2 .[G,A,^CE]D,,- | [D,,F,]2 .[F,A,D]2 [G,,,G,,]2 .[G,B,F]C,,- | %68
 [C,,G,,E,]2 .[G,CE]_E,,- [E,,G,]2 .[_E,G,_B,]_A,,- | [A,,C]2 .[_E,_A,C]G,,- [G,,B,]2 .[G,B,F]2 | %70
 [C,G,C]2 [_B,,_B,]2 [A,,A,]2 [_A,,_A,]2 | [G,,G,]2 [E,,E,]2 [^C,,^C,]2 [A,,,A,,]2 | %72
 [D,,D,]2 [F,,F,]2 [G,,G,]2 [B,,B,]2 |1 [C,G,C]6 [G,,F,]C,, :|2 [C,G,C]6 [C,C]F,,- |: %75
 [F,,C,A,]2[I:staff -1] .[EFA]2 .[DFA]2 .[EFA]2 | %76
 [DFA] .[EFA]2 [DFA]- [DFA][I:staff +1]^D,,-[D,,^F,]E,,- | [E,,C,G,]2 .[B,CE]2 .[A,CE]2 .[B,CE]2 | %78
 [A,CE] .[B,CE]2 [A,CE]- [A,CE]^C,,-[C,,E,]D,,- | [D,,F,]2 .[G,B,DF]2 [G,,F,]2 .[G,B,DF]C,,- | %80
 [C,,G,,E,]2 .[G,CE]2 [G,,G,]2 [E,,E,]D,,- | [D,,^F,]2 .[D,F,A,C]2 [^F,,F,]2 .[D,F,A,C]=F,,- | %82
 [F,,_A,]2 G,,-[G,,D,F,]- [G,,D,F,]2 [E,,E,]F,,- | [F,,C,A,]2[I:staff -1] .[EFA]2 .[DFA]2 .[EFA]2 | %84
 [DFA] .[EFA]2 [DFA]- [DFA][I:staff +1]^D,,-[D,,^F,]E,,- | [E,,G,]2 .[B,CE]2 .[A,CE]2 .[B,CE]2 | %86
 [A,CE] [B,CE]2 [A,CE]- [A,CE]^C,,-[C,,E,]D,,- | [D,,F,]2 .[F,A,D]2 [E,,B,,E,]2 .[E,^G,B,D]A,,- | %88
 [A,,E,A,]2 .[E,A,C]2 [D,,D,]2 [^F,,^F,]2 | [G,,G,]2 [E,,E,]2 [D,,D,]2 [G,,G,]2 |1 %90
 [C,C]4 z [C,,C,] [D,,D,][E,,E,] :|2 [C,C]4 z2 !fermata![C,,C,]2 |] %92
V:4
 x8 | x8 | x8 | x4!8va(! x2!8va)! x2 |: x8 | x8 | x8 | x8 | x8 | x8 | x8 | x8 | x8 | x8 | x8 | x8 | %16
 x8 | x8 | x8 |1 x7 x :|2 x8 |: x8 | x8 | x8 | x8 | x8 | x8 | x8 | x8 | x8 | x8 | x8 | x8 | x8 | %34
 x8 | x8 |1 x8 :|2 x8 || x8 | x8 | x8 | x8 | x8 | x8 | x8 | x8 | x8 | x8 | x8 | x8 | x8 | x8 | x8 | %53
 x8 || x8 | x8 | x8 | x8 |:[K:C] x8 | x8 | x8 | x8 | x8 | x8 | x8 | x8 | x8 | x8 | x8 | x8 | x8 | %71
 x8 | x8 |1 x7 x- :|2 x8 |: x8 | x8 | x8 | x8 | x8 | x8 | x8 | x8 | x8 | x8 | x8 | x8 | x8 | x8 | %89
 x8 |1 x8 :|2 x3!8va(! x5!8va)! |] %92
V:5
 x8 | x8 | x8 | x8 |: x8 | x8 | x8 | x8 | x8 | x8 | x8 | x8 | x8 | x8 | x8 | x8 | x8 | x8 | x8 |1 %19
 x [B,D] [_B,_D][A,C] [G,=B,]2 x2 :|2 x [B,D] [_B,_D][A,C] [G,=B,]2 x2 |: x8 | x8 | x8 | x8 | x8 | %26
 x8 | x8 | x8 | x8 | x8 | x8 | x8 | x8 | x8 | x8 |1 x8 :|2 x8 || x8 | x8 | x8 | x8 | x8 | x8 | x8 | %45
 x8 | x8 | x8 | x8 | x8 | x8 | x8 | x8 | [G,,D,G,][B,D][_B,_D][A,C] [G,=B,]2 x2 || x8 | x8 | x8 | %57
 x8 |:[K:C] x8 | x8 | x8 | x8 | x8 | x8 | x8 | x8 | x8 | x8 | x8 | x8 | x8 | x8 | x8 |1 %73
 z [EG] [_E_G][DF] [C=E]2 x2 :|2 z [EG] [_E_G][DF] [C=E]2 x2 |: x8 | x8 | x8 | x8 | x8 | x8 | x8 | %82
 x8 | x8 | x8 | x8 | x8 | x8 | x8 | x8 |1 z A, G,C- C2 x2 :|2 z A, G,C- C4 |] %92
V:6
 x8 | x8 | x8 | x8 |: x8 | x8 | x8 | x8 | x8 | x8 | x8 | x8 | x8 | x8 | x8 | x8 | x8 | x8 | x8 |1 %19
 [G,,D,G,]4 z [D,,D,] x x- :|2 [G,,D,G,]4 x4 |: x8 | x8 | x8 | x8 | x8 | x8 | x8 | x8 | x8 | x8 | %31
 x8 | x8 | x8 | x8 | x8 |1 x8 :|2 x8 || x8 | x8 | x8 | x8 | x8 | x8 | x8 | x8 | x8 | x8 | x8 | x8 | %50
 x8 | x8 | x8 | x8 || x8 | x8 | x8 | x8 |:[K:C] x8 | x8 | x8 | x8 | x8 | x8 | x8 | x8 | x8 | x8 | %68
 x8 | x8 | x8 | x8 | x8 |1 x8 :|2 x8 |: x8 | x8 | x8 | x8 | x8 | x8 | x8 | x8 | x8 | x8 | x8 | x8 | %87
 x8 | x8 | x8 |1 x8 :|2 x8 |] %92
V:7
 x8 | x8 | x8 | x4!8va(! x2!8va)! x2 |: x8 | x8 | x8 | x8 | x8 | x8 | x8 | x8 | x8 | x8 | x8 | x8 | %16
 x8 | x8 | x8 |1 x8 :|2 x8 |: x8 | x8 | x8 | x8 | x8 | x8 | x8 | x8 | x8 | x8 | x8 | x8 | x8 | x8 | %35
 x8 |1 [Bdg]4 z d [gb]e :|2 [Bdg]6 x2 || x8 | x8 | x8 | x8 | x8 | x8 | x8 | x8 | x8 | x8 | x8 | %49
 x8 | x8 | x8 | x8 | x8 || x8 | x8 | x8 | x8 |:[K:C] x8 | x8 | x8 | x8 | x8 | x8 | x8 | x8 | x8 | %67
 x8 | x8 | x8 | x8 | x8 | x8 |1 x8 :|2 x8 |: x8 | x8 | x8 | x8 | x8 | x8 | x8 | x8 | x8 | x8 | x8 | %86
 x8 | x8 | x8 | x8 |1 x8 :|2 x3!8va(! x5!8va)! |] %92

